img/icons/price_from_to.svg

<svg xmlns="http://www.w3.org/2000/svg" width="138" height="71" viewBox="0 0 138 71"><path d="M87 64.5h-1.5l6-6H93l-6 6zm-7.5 0l6-6H87l-6 6h-1.5zm-6 0l6-6H81l-6 6h-1.5zm-6 0l6-6H75l-6 6h-1.5zm-6 0l6-6H69l-6 6h-1.5zm-6 0l6-6H63l-6 6h-1.5zm-6 0l6-6H57l-6 6h-1.5zm-6 0l6-6H51l-6 6h-1.5z" fill="#2E8DD6"/><path d="M26 64.5h-1.5l6-6H32l-6 6zm-7.5 0l6-6H26l-6 6h-1.5zm-6 0l6-6H20l-6 6h-1.5zm-6 0l6-6H14l-6 6H6.5zm-6 0l6-6H8l-6 6H.5zM132 64.5h-1.5l6-6h1.5l-6 6zm-7.5 0l6-6h1.5l-6 6h-1.5zm-6 0l6-6h1.5l-6 6h-1.5zm-6 0l6-6h1.5l-6 6h-1.5zm-6 0l6-6h1.5l-6 6h-1.5z" fill="#CCC"/><path d="M46.533 28.265c2.462 9.277-4.777 13.1-6.033 22.996-.102.804-1.12 1.075-1.607.431-5.4-7.155-12.569-7.578-15.729-14.398-3.111-6.714-.076-14.937 6.851-17.533 7.046-2.64 14.632 1.398 16.518 8.504zM122.432 22.956c-1.764 14.487-14.106 15.689-21.451 28.898-.597 1.074-2.182.868-2.503-.321-3.568-13.197-13.417-17.935-14.02-29.366-.593-11.253 8.311-21.08 19.523-20.733 11.403.353 19.802 10.424 18.451 21.522z" fill="none" stroke="#2E8DD6" stroke-width="2"/><path d="M98.5 54.5a7 7 0 1 1 0 14 7 7 0 0 1 0-14z" fill="#FFF"/><path d="M98.5 54.943a6.557 6.557 0 1 1 0 13.115 6.557 6.557 0 0 1 0-13.115z" fill="none" stroke="#2E8DD6"/><path d="M98.5 59a2.5 2.5 0 1 1 0 5 2.5 2.5 0 0 1 0-5z" fill="#2E8DD6"/><path d="M39.5 54.5a7 7 0 1 1 0 14 7 7 0 0 1 0-14z" fill="#FFF"/><path d="M39.5 54.943a6.557 6.557 0 1 1 0 13.115 6.557 6.557 0 0 1 0-13.115z" fill="none" stroke="#2E8DD6"/><path d="M39.5 59a2.5 2.5 0 1 1 0 5 2.5 2.5 0 0 1 0-5zM41.148 35.716c-.567.861-1.434 1.291-2.6 1.291-1.13 0-1.986-.444-2.569-1.333-.584-.889-.875-2.192-.875-3.91 0-1.801.283-3.128.85-3.983.567-.854 1.432-1.281 2.594-1.281 1.134 0 1.992.447 2.576 1.341.583.893.875 2.201.875 3.923 0 1.773-.284 3.091-.851 3.952zm-1.229-6.922c-.289-.612-.746-.918-1.371-.918s-1.08.3-1.365.9c-.284.601-.427 1.597-.427 2.988 0 1.392.143 2.385.427 2.981.285.596.74.894 1.365.894s1.082-.303 1.371-.908c.289-.605.434-1.594.434-2.967 0-1.368-.145-2.358-.434-2.97zM27 35.625l2.618-2.646c.773-.796 1.286-1.36 1.538-1.693.252-.333.436-.646.552-.939.116-.293.174-.607.174-.943 0-.46-.138-.823-.413-1.089-.276-.265-.657-.398-1.143-.398-.388 0-.765.073-1.128.217-.363.144-.783.405-1.26.782l-.882-1.082c.565-.48 1.113-.82 1.646-1.02.532-.2 1.099-.3 1.701-.3.944 0 1.701.248 2.27.744.57.495.854 1.162.854 2 0 .461-.082.898-.246 1.313a5.346 5.346 0 0 1-.757 1.281c-.34.44-.906 1.034-1.698 1.783l-1.763 1.718v.069h4.819v1.446H27v-1.243zM114.169 24.216c-.556.861-1.407 1.291-2.552 1.291-1.109 0-1.95-.444-2.522-1.333-.573-.889-.859-2.192-.859-3.91 0-1.801.278-3.129.835-3.983.557-.854 1.405-1.281 2.546-1.281 1.113 0 1.956.447 2.529 1.341.572.893.859 2.201.859 3.923 0 1.774-.279 3.091-.836 3.952zm-1.206-6.922c-.284-.612-.733-.918-1.346-.918-.614 0-1.06.3-1.339.9-.28.601-.42 1.597-.42 2.988 0 1.392.14 2.386.42 2.981.279.596.725.894 1.339.894.613 0 1.062-.303 1.346-.908.284-.605.426-1.594.426-2.967 0-1.368-.142-2.358-.426-2.97zm-9.314 8.213c-1.109 0-1.95-.444-2.522-1.333-.573-.889-.859-2.192-.859-3.91 0-1.801.278-3.129.835-3.983.556-.854 1.405-1.281 2.546-1.281 1.113 0 1.956.447 2.529 1.341.572.893.858 2.201.858 3.923 0 1.774-.278 3.091-.835 3.952-.556.861-1.407 1.291-2.552 1.291zm1.346-8.213c-.284-.612-.733-.918-1.346-.918-.614 0-1.06.3-1.34.9-.279.601-.419 1.597-.419 2.988 0 1.392.14 2.386.419 2.981.28.596.726.894 1.34.894.613 0 1.062-.303 1.346-.908.284-.605.426-1.594.426-2.967 0-1.368-.142-2.358-.426-2.97zm-9.301 1.7c1.004 0 1.8.272 2.386.817.586.544.879 1.286.879 2.227 0 1.088-.333 1.939-.998 2.551-.666.612-1.612.918-2.839.918-1.114 0-1.988-.184-2.624-.551v-1.487c.368.214.79.379 1.267.495.477.117.921.175 1.329.175.723 0 1.273-.165 1.65-.496.377-.33.566-.814.566-1.452 0-1.219-.759-1.829-2.277-1.829a5.86 5.86 0 0 0-.791.066 9.434 9.434 0 0 0-.824.151l-.716-.434.382-4.984h5.18v1.459h-3.769l-.225 2.527c.159-.028.353-.06.583-.098a5.4 5.4 0 0 1 .841-.055z" fill="#2E8DD6"/></svg>

<svg version="1.1" xmlns="http://www.w3.org/2000/svg" xmlns:xlink="http://www.w3.org/1999/xlink" width="138" height="71" viewBox="0 0 138 71"><g id="-icon_price_from"><path id="Rectangle-31-cop" d="M87.000,64.500 L85.500,64.500 L91.500,58.500 L93.000,58.500 L87.000,64.500 zM79.500,64.500 L85.500,58.500 L87.000,58.500 L81.000,64.500 L79.500,64.500 zM73.500,64.500 L79.500,58.500 L81.000,58.500 L75.000,64.500 L73.500,64.500 zM67.500,64.500 L73.500,58.500 L75.000,58.500 L69.000,64.500 L67.500,64.500 zM61.500,64.500 L67.500,58.500 L69.000,58.500 L63.000,64.500 L61.500,64.500 zM55.500,64.500 L61.500,58.500 L63.000,58.500 L57.000,64.500 L55.500,64.500 zM49.500,64.500 L55.500,58.500 L57.000,58.500 L51.000,64.500 L49.500,64.500 zM43.500,64.500 L49.500,58.500 L51.000,58.500 L45.000,64.500 L43.500,64.500 z" fill="#2E8DD6" /><path id="Rectangle-31-cop" d="M26.000,64.500 L24.500,64.500 L30.500,58.500 L32.000,58.500 L26.000,64.500 zM18.500,64.500 L24.500,58.500 L26.000,58.500 L20.000,64.500 L18.500,64.500 zM12.500,64.500 L18.500,58.500 L20.000,58.500 L14.000,64.500 L12.500,64.500 zM6.500,64.500 L12.500,58.500 L14.000,58.500 L8.000,64.500 L6.500,64.500 zM0.500,64.500 L6.500,58.500 L8.000,58.500 L2.000,64.500 L0.500,64.500 z" fill="#CCCCCC" /><path id="Rectangle-31-cop" d="M132.000,64.500 L130.500,64.500 L136.500,58.500 L138.000,58.500 L132.000,64.500 zM124.500,64.500 L130.500,58.500 L132.000,58.500 L126.000,64.500 L124.500,64.500 zM118.500,64.500 L124.500,58.500 L126.000,58.500 L120.000,64.500 L118.500,64.500 zM112.500,64.500 L118.500,58.500 L120.000,58.500 L114.000,64.500 L112.500,64.500 zM106.500,64.500 L112.500,58.500 L114.000,58.500 L108.000,64.500 L106.500,64.500 z" fill="#CCCCCC" /><g id="Forma-1" ><path id="Forma-1-stroke" d="M46.533,28.265 C48.995,37.542 41.756,41.365 40.500,51.261 C40.398,52.065 39.380,52.336 38.893,51.692 C33.493,44.537 26.324,44.114 23.164,37.294 C20.053,30.580 23.088,22.357 30.015,19.761 C37.061,17.121 44.647,21.159 46.533,28.265 z" fill="none" stroke="#2E8DD6" stroke-width="2" /></g><g id="Forma-1-copy" ><path id="Forma-1-copy-stroke" d="M122.432,22.956 C120.668,37.443 108.326,38.645 100.981,51.854 C100.384,52.928 98.799,52.722 98.478,51.533 C94.910,38.336 85.061,33.598 84.458,22.167 C83.865,10.914 92.769,1.087 103.981,1.434 C115.384,1.787 123.783,11.858 122.432,22.956 z" fill="none" stroke="#2E8DD6" stroke-width="2" /></g><g id="Ellipse-17-copy-" ><path id="Ellipse-17-copy--fill" d="M98.500,54.500 C102.366,54.500 105.500,57.634 105.500,61.500 C105.500,65.366 102.366,68.500 98.500,68.500 C94.634,68.500 91.500,65.366 91.500,61.500 C91.500,57.634 94.634,54.500 98.500,54.500 z" fill="#FFFFFF" /><path id="Ellipse-17-copy--stroke" d="M98.500,54.943 C102.121,54.943 105.057,57.879 105.057,61.500 C105.057,65.121 102.121,68.057 98.500,68.057 C94.879,68.057 91.943,65.121 91.943,61.500 C91.943,57.879 94.879,54.943 98.500,54.943 z" fill="none" stroke="#2E8DD6" stroke-width="1" /></g><path id="Ellipse-17-copy-" d="M98.500,59.000 C99.881,59.000 101.000,60.119 101.000,61.500 C101.000,62.881 99.881,64.000 98.500,64.000 C97.119,64.000 96.000,62.881 96.000,61.500 C96.000,60.119 97.119,59.000 98.500,59.000 z" fill="#2E8DD6" /><g id="Ellipse-17-copy-" ><path id="Ellipse-17-copy--fill" d="M39.500,54.500 C43.366,54.500 46.500,57.634 46.500,61.500 C46.500,65.366 43.366,68.500 39.500,68.500 C35.634,68.500 32.500,65.366 32.500,61.500 C32.500,57.634 35.634,54.500 39.500,54.500 z" fill="#FFFFFF" /><path id="Ellipse-17-copy--stroke" d="M39.500,54.943 C43.121,54.943 46.057,57.879 46.057,61.500 C46.057,65.121 43.121,68.057 39.500,68.057 C35.879,68.057 32.943,65.121 32.943,61.500 C32.943,57.879 35.879,54.943 39.500,54.943 z" fill="none" stroke="#2E8DD6" stroke-width="1" /></g><path id="Ellipse-17-copy-" d="M39.500,59.000 C40.881,59.000 42.000,60.119 42.000,61.500 C42.000,62.881 40.881,64.000 39.500,64.000 C38.119,64.000 37.000,62.881 37.000,61.500 C37.000,60.119 38.119,59.000 39.500,59.000 z" fill="#2E8DD6" /><path id="20" d="M41.148,35.716 C40.581,36.577 39.714,37.007 38.548,37.007 C37.418,37.007 36.562,36.563 35.979,35.674 C35.395,34.785 35.104,33.482 35.104,31.764 C35.104,29.963 35.387,28.636 35.954,27.781 C36.521,26.927 37.386,26.500 38.548,26.500 C39.682,26.500 40.540,26.947 41.124,27.841 C41.707,28.734 41.999,30.042 41.999,31.764 C41.999,33.537 41.715,34.855 41.148,35.716 zM39.919,28.794 C39.630,28.182 39.173,27.876 38.548,27.876 C37.923,27.876 37.468,28.176 37.183,28.776 C36.899,29.377 36.756,30.373 36.756,31.764 C36.756,33.156 36.899,34.149 37.183,34.745 C37.468,35.341 37.923,35.639 38.548,35.639 C39.173,35.639 39.630,35.336 39.919,34.731 C40.208,34.126 40.353,33.137 40.353,31.764 C40.353,30.396 40.208,29.406 39.919,28.794 zM27.000,35.625 C27.000,35.625 29.618,32.979 29.618,32.979 C30.391,32.183 30.904,31.619 31.156,31.286 C31.408,30.953 31.592,30.640 31.708,30.347 C31.824,30.054 31.882,29.740 31.882,29.404 C31.882,28.944 31.744,28.581 31.469,28.315 C31.193,28.050 30.812,27.917 30.326,27.917 C29.938,27.917 29.561,27.990 29.198,28.134 C28.835,28.278 28.415,28.539 27.938,28.916 C27.938,28.916 27.056,27.834 27.056,27.834 C27.621,27.354 28.169,27.014 28.702,26.814 C29.234,26.614 29.801,26.514 30.403,26.514 C31.347,26.514 32.104,26.762 32.673,27.258 C33.243,27.753 33.527,28.420 33.527,29.258 C33.527,29.719 33.445,30.156 33.281,30.571 C33.117,30.985 32.864,31.412 32.524,31.852 C32.184,32.292 31.618,32.886 30.826,33.635 C30.826,33.635 29.063,35.353 29.063,35.353 L29.063,35.422 L33.882,35.422 L33.882,36.868 L27.000,36.868 L27.000,35.625 z" fill="#2E8DD6" /><path id="500" d="M114.169,24.216 C113.613,25.077 112.762,25.507 111.617,25.507 C110.508,25.507 109.667,25.063 109.095,24.174 C108.522,23.285 108.236,21.982 108.236,20.264 C108.236,18.463 108.514,17.135 109.071,16.281 C109.628,15.427 110.476,15.000 111.617,15.000 C112.730,15.000 113.573,15.447 114.146,16.341 C114.718,17.234 115.005,18.542 115.005,20.264 C115.005,22.038 114.726,23.355 114.169,24.216 zM112.963,17.294 C112.679,16.682 112.230,16.376 111.617,16.376 C111.003,16.376 110.557,16.676 110.278,17.276 C109.998,17.877 109.858,18.873 109.858,20.264 C109.858,21.656 109.998,22.650 110.278,23.245 C110.557,23.841 111.003,24.139 111.617,24.139 C112.230,24.139 112.679,23.836 112.963,23.231 C113.247,22.626 113.389,21.637 113.389,20.264 C113.389,18.896 113.247,17.906 112.963,17.294 zM103.649,25.507 C102.540,25.507 101.699,25.063 101.127,24.174 C100.554,23.285 100.268,21.982 100.268,20.264 C100.268,18.463 100.546,17.135 101.103,16.281 C101.659,15.427 102.508,15.000 103.649,15.000 C104.762,15.000 105.605,15.447 106.178,16.341 C106.750,17.234 107.036,18.542 107.036,20.264 C107.036,22.038 106.758,23.355 106.201,24.216 C105.645,25.077 104.794,25.507 103.649,25.507 zM104.995,17.294 C104.711,16.682 104.262,16.376 103.649,16.376 C103.035,16.376 102.589,16.676 102.309,17.276 C102.030,17.877 101.890,18.873 101.890,20.264 C101.890,21.656 102.030,22.650 102.309,23.245 C102.589,23.841 103.035,24.139 103.649,24.139 C104.262,24.139 104.711,23.836 104.995,23.231 C105.279,22.626 105.421,21.637 105.421,20.264 C105.421,18.896 105.279,17.906 104.995,17.294 zM95.694,18.994 C96.698,18.994 97.494,19.266 98.080,19.811 C98.666,20.355 98.959,21.097 98.959,22.038 C98.959,23.126 98.626,23.977 97.961,24.589 C97.295,25.201 96.349,25.507 95.122,25.507 C94.008,25.507 93.134,25.323 92.498,24.956 C92.498,24.956 92.498,23.469 92.498,23.469 C92.866,23.683 93.288,23.848 93.765,23.964 C94.242,24.081 94.686,24.139 95.094,24.139 C95.817,24.139 96.367,23.974 96.744,23.643 C97.121,23.313 97.310,22.829 97.310,22.191 C97.310,20.972 96.551,20.362 95.033,20.362 C94.819,20.362 94.556,20.384 94.242,20.428 C93.929,20.473 93.654,20.523 93.418,20.579 C93.418,20.579 92.702,20.145 92.702,20.145 L93.084,15.161 L98.264,15.161 L98.264,16.620 L94.495,16.620 C94.495,16.620 94.270,19.147 94.270,19.147 C94.429,19.119 94.623,19.087 94.853,19.049 C95.082,19.012 95.363,18.994 95.694,18.994 z" fill="#2E8DD6" /></g></svg>
